src/img/d8.svg

<?xml version="1.0" encoding="UTF-8"?>
<svg width="43px" height="39px" viewBox="0 0 43 39" version="1.1" xmlns="http://www.w3.org/2000/svg" xmlns:xlink="http://www.w3.org/1999/xlink" xmlns:cc="http://creativecommons.org/ns#">
		<!-- Generator: Sketch 53.2 (72643) - https://sketchapp.com -->
		<title>d8</title>
		<desc>Created with Sketch.</desc>
		<g id="Page-1" stroke="none" stroke-width="1" fill="none" fill-rule="evenodd">
				<g id="rpg_dice" transform="translate(-154.000000, -72.000000)" fill="#000000" fill-rule="nonzero">
						<path d="M159.98262,107.34817 C158.27074,98.88494 154.27326,74.754098 154.54249,74.5088 C154.7153,74.351351 162.57696,73.897731 172.01285,73.500755 L189.16901,72.778979 L190.34642,78.450523 C190.99399,81.569872 191.26638,84.792973 190.95171,85.612971 C190.63705,86.432968 190.7649,86.865748 191.23582,86.574703 C191.70674,86.283658 192.85926,89.972786 193.79697,94.772765 C194.73469,99.57274 195.73031,104.46187 196.00947,105.63749 C196.56582,107.98046 198.91778,107.63116 169.20771,109.61795 L160.55872,110.19633 L159.98262,107.34817 L159.98262,107.34817 Z M186.67698,107.42517 C194.3786,106.88691 195.40661,106.5989 194.78243,105.15435 C194.38927,104.24444 194.03621,102.74551 193.99785,101.82339 C193.95945,100.90127 193.66234,100.31107 193.33751,100.51183 C193.01267,100.71258 190.60621,96.567441 187.98981,91.300395 C185.36325,86.012905 182.86048,82.121656 182.40159,82.611958 C181.94448,83.100395 177.42427,88.45 172.35669,94.5 C162.76456,105.95169 160.54986,108.4113 161.75233,106.27697 C162.13131,105.60431 166.69733,100.01026 171.89904,93.845764 C177.10075,87.681263 181.35669,82.350278 181.35669,81.99913 C181.35669,81.647982 176.80164,80.285378 171.23435,78.97112 C165.66706,77.656862 161.56765,76.429679 162.12455,76.244047 C162.68144,76.058416 167.57279,77.032881 172.9942,78.409525 L182.85132,80.912515 L185.06804,78.206257 C188.77529,73.680306 188.00278,72.996448 182.01093,75.5 C177.53348,77.370799 175.78152,77.333409 179.85669,75.45403 L182.85669,74.070492 L179.60275,74.372524 C177.81308,74.538642 176.16325,74.860283 175.93645,75.087281 C175.70966,75.314279 170.966,75.457241 165.39498,75.404974 L155.26585,75.309944 L155.77791,77.904975 C156.05954,79.332236 157.21549,85.9 158.34668,92.5 C159.47788,99.1 160.63622,105.55137 160.92078,106.83638 C161.4944,109.42678 158.88994,109.36723 186.67698,107.4252 L186.67698,107.42517 Z M187.28321,104.34993 C188.09154,102.67377 187.98515,102.07137 186.80052,101.61679 C185.94545,101.28867 185.03211,101.68219 184.71185,102.51683 C184.01936,104.32142 179.97624,104.4761 178.61797,102.74997 C177.36051,101.15196 179.37134,96.156919 181.04419,96.723074 C181.82957,96.988877 181.56325,97.793413 180.25772,99.09894 C179.17203,100.18463 178.55171,101.50651 178.87923,102.03644 C179.78912,103.50867 183.15479,103.18317 184.07789,101.53368 C184.59776,100.60472 185.71535,100.281 187.12758,100.65031 C189.76792,101.34077 189.87627,101.96918 187.80152,104.55884 C186.29444,106.43996 186.27841,106.4335 187.28321,104.34993 L187.28321,104.34993 Z M164.06554,93.375516 C163.67567,92.985649 163.35669,92.066667 163.35669,91.333333 C163.35669,90.6 162.45669,89.1 161.35669,88 C158.82192,85.465232 158.8361,84.348981 161.42059,82.96579 C164.12893,81.51633 166.66839,83.442503 165.77211,86.266412 C165.40446,87.424779 165.54184,88.003595 166.10221,87.657262 C166.63011,87.331004 167.91582,87.698292 168.95935,88.473464 C170.47078,89.596205 170.63251,90.250705 169.75454,91.691431 C168.59476,93.594617 165.26909,94.579091 164.06552,93.375516 L164.06554,93.375516 Z M169.03379,91.399075 C169.73389,89.574659 167.7017,87.930376 165.69737,88.699509 C164.96,88.982467 164.35669,90.065833 164.35669,91.106989 C164.35669,93.469672 168.14836,93.706463 169.03379,91.399075 Z M164.78248,86.332783 C165.13436,85.415813 164.97657,84.219885 164.43185,83.675164 C163.08657,82.329882 160.30295,84.696387 161.02312,86.573113 C161.76898,88.516798 163.99911,88.37423 164.78248,86.332783 Z" id="d8"></path>
				</g>
		</g>
</svg>

<!-- Created with Inkscape (http://www.inkscape.org/) -->
<!-- License: Creative Commons -->
<svg width="43" height="39" xmlns="http://www.w3.org/2000/svg"><defs><style>*{fill:#fff}</style></defs><g id="Page-1" stroke="none" stroke-width="1" fill="none" fill-rule="evenodd"><g id="rpg_dice" transform="translate(-154 -72)" fill="#000" fill-rule="nonzero"><path d="M159.983 107.348c-1.712-8.463-5.71-32.594-5.44-32.84.172-.157 8.034-.61 17.47-1.007l17.156-.722 1.177 5.672c.648 3.119.92 6.342.606 7.162-.315.82-.187 1.253.284.962.47-.291 1.623 3.398 2.561 8.198.938 4.8 1.933 9.689 2.212 10.864.557 2.343 2.909 1.994-26.801 3.98l-8.65.58-.575-2.849zm26.694.077c7.702-.538 8.73-.826 8.105-2.27-.393-.91-.746-2.41-.784-3.332-.039-.922-.336-1.512-.66-1.311-.325.2-2.732-3.945-5.348-9.212-2.627-5.287-5.13-9.178-5.588-8.688-.458.488-4.978 5.838-10.045 11.888-9.592 11.452-11.807 13.911-10.605 11.777.38-.673 4.945-6.267 10.147-12.431 5.202-6.165 9.458-11.496 9.458-11.847 0-.351-4.555-1.714-10.123-3.028-5.567-1.314-9.666-2.541-9.11-2.727.557-.186 5.449.789 10.87 2.166l9.857 2.503 2.217-2.707c3.707-4.526 2.935-5.21-3.057-2.706-4.478 1.87-6.23 1.833-2.154-.046l3-1.384-3.254.303c-1.79.166-3.44.487-3.667.714-.226.227-4.97.37-10.541.318l-10.13-.095.513 2.595c.282 1.427 1.437 7.995 2.569 14.595 1.13 6.6 2.29 13.051 2.574 14.336.573 2.59-2.031 2.531 25.756.59zm.606-3.075c.809-1.676.702-2.279-.482-2.733-.856-.328-1.769.065-2.09.9-.692 1.804-4.735 1.96-6.093.233-1.257-1.598.753-6.593 2.426-6.027.786.266.52 1.07-.786 2.376-1.086 1.086-1.706 2.408-1.379 2.937.91 1.473 4.276 1.147 5.199-.502.52-.93 1.637-1.253 3.05-.884 2.64.69 2.748 1.32.674 3.909-1.508 1.881-1.524 1.874-.519-.21zm-23.217-10.974c-.39-.39-.71-1.31-.71-2.043 0-.733-.9-2.233-2-3.333-2.534-2.535-2.52-3.651.065-5.034 2.708-1.45 5.247.477 4.351 3.3-.368 1.159-.23 1.738.33 1.391.528-.326 1.814.041 2.857.816 1.512 1.123 1.674 1.778.796 3.218-1.16 1.904-4.486 2.888-5.69 1.685zm4.968-1.977c.7-1.824-1.332-3.469-3.337-2.7-.737.283-1.34 1.367-1.34 2.408 0 2.363 3.791 2.6 4.677.292zm-4.252-5.066c.352-.917.195-2.113-.35-2.658-1.345-1.345-4.129 1.021-3.409 2.898.746 1.944 2.976 1.801 3.76-.24z" id="d8"/></g></g></svg>
